X:268
T:Fox Chase
R:Reel
B:The Athole Collection
M:C|
L:1/8
K:A
e|cAce aece|dcBA GBBe|1 cAce aece|dcBe cAA:|2 cAce abae|dcBe cAA||
B|cAEA CEA,c|dcBA GB B>d|1 cAEA CDA,c|dcBe cAA:|2 cAce abae|
dcBe cAA||

